X: 040852
T: Davy's Reel
S: "First Collection of Traditional Irish Music" (M.Mulvihill)
Z: B.Black
L: 1/8
M: 4/4
R: reel
K: G
D3 d cAAB|cded cAGE|D3 d cAAB|cAGE ED D2|
FGAB cAAd|^cded cA A2|(3fga ed cAAB|cAGE ED D2 :|
ABde fefg|afgf dcA^G|ABde f2 ed|cA^GE ED D2|
ABde f3 g|afgf defg|afge (3fga ed|cAGE EDCE :|
